X:52
T:Marwnad yr Heliwr - Death of the Hunter
M:3/4
L:1/8
Q:200
C:Trad. arr. Ceri Rhys Matthews
R:Waltz
N:Compressed arrangement
K:D
FE | D2 d3 c | d4 A2 | D3 F E>C | D4 A2 |
d3 c B2 | A2 G2 F2 | EF G2 F2 |1 E4 :||2 E4 DE||
||: F2 D2 E2 | F3 G A2 | F2 D2 E2
F3 G A2 | d3 c B2 | A2 G2 F2 | G2 F2 E2 |1 F6 :||2 D4||
